X:3
T:Ass in the Graveyard
S:Transcribed from Pipedown: The First Measure
Z:Robin Beech robin.beech@mcgill.ca
R:waltz
M:3/4
L:1/8
K:G
D2 |:D2 GF GA |G3 A BG |AG FG AE |D4 AB |c2 AB cA |B2 GA BG |
AG FG AE |F2 D2 D2 |D2 GF GA |G3 A BG |AG FG AE |D4 AB |
c2 AB cA |B2 GA BG |AG FG AF |1G4 D2 :|2 G4 Bc |:dc Bd cA |
B4 Ad |G2 F2 E2 |D4 AB |c2 AB cA |B2 GA BG |AG FG AE |F2 D2 Bc |dc Bd cA |
B4 Ad |G2 F2 E2 |D4 AB |c2 AB cA |B2 GA BG |AG FG AF |1G4 Bc :|2G6 |]
